X:15
T:Lackagh Cross
R:polka
Z:id:hn-polka-61
M:2/4
L:1/8
K:Bm
dB  fB | dB    fe/d/ | c/B/A/c/ e/c/A/B/ |  c/B/A/c/ ec/e/ |
fb  ba | fb       ba | fa          fe/d/ |1 c/B/A    BB/c/ :|2 c/B/A Bf ||
a>f df | A/B/c/d/ e2 | g/f/e/d/       cA |  Bc          df |
a>f df | A/B/c/d/ e2 | g/f/e/d/       cA |1 Bc          df :|2 Bc dB/c/||
dB  fB | dB    fe/d/ | c/B/A/c/ e/c/A/B/ |  c/B/A/c/ ec/e/ |
fb  ba | fb       ba | fa          fe/d/ |1 c/B/A    BB/c/ :|2 c/B/A Bf ||
a>f df | A/B/c/d/ e2 | g/f/e/d/       cA |  Bc          df |
a>f df | A/B/c/d/ e2 | g/f/e/d/       cA |1 Bc          df :|2 Bc dB/c/|]
